Catalina-light/actions/16/mail-signed-full.svg

<svg xmlns="http://www.w3.org/2000/svg" width="16" height="16" viewBox="0 0 16 16">
 <defs>
  <style id="current-color-scheme" type="text/css">
   .ColorScheme-Text { color:#5c616c; } .ColorScheme-Highlight { color:#5294e2; }
  </style>
 </defs>
 <path style="fill:currentColor" class="ColorScheme-Text" d="M 2 2 C 0.892 2 0 2.892 0 4 L 0 12 C 0 13.108 0.892 14 2 14 L 9 14 L 9 12 C 9.00005 11.7348 9.1054287 11.480479 9.2929688 11.292969 L 11.292969 9.2929688 L 12.292969 8.2929688 L 13.292969 7.2929688 C 13.476969 7.1086687 13.726328 7.004 13.986328 7 C 14.256258 6.99639 14.516181 7.1020487 14.707031 7.2929688 L 16 8.5859375 L 16 4 C 16 2.892 15.108 2 14 2 L 2 2 z M 2 4 L 8 7 L 14 4 L 14 6 L 8 9 L 2 6 L 2 4 z M 14 8 L 13 9 L 12 10 L 10 12 L 10 14 L 12 14 L 12.59375 13.40625 L 13 13 L 14 12 L 15 11 L 16 10 L 14 8 z"/>
</svg>

<svg width="16" height="16" viewBox="0 0 16 16" xmlns="http://www.w3.org/2000/svg">
<defs>
<style id="current-color-scheme" type="text/css">.ColorScheme-Text { color:#5c616c; } .ColorScheme-Highlight { color:#5294e2; }</style>
</defs>
<path class="ColorScheme-Text" d="m2 2c-1.108 0-2 0.892-2 2v8c0 1.108 0.892 2 2 2h7v-2c5e-5 -0.2652 0.10543-0.51952 0.29297-0.70703l4-4c0.184-0.1843 0.43336-0.28897 0.69336-0.29297 0.26993-0.00361 0.52985 0.10205 0.7207 0.29297l1.293 1.293v-4.5859c0-1.108-0.892-2-2-2h-12zm0 2 6 3 6-3v2l-6 3-6-3v-2zm12 4-4 4v2h2l4-4-2-2z" fill="currentColor"/>
</svg>
